vms/client/nx_vms_client_desktop/external_resources/skin/20x20/Outline/audit_trail.svg

<svg width="20" height="20" viewBox="0 0 20 20" fill="none" xmlns="http://www.w3.org/2000/svg">
<mask id="path-1-inside-1_7693_8" fill="white">
<path class="Primary" fill-rule="evenodd" clip-rule="evenodd" d="M3.5 15.4286V16.5H12.7116V15H14.2116V17C14.2116 17.5523 13.7639 18 13.2116 18H3C2.44771 18 2 17.5523 2 17V15.4286V6.83118C2 6.56479 2.10629 6.30941 2.29528 6.12169L6.15242 2.29051C6.33976 2.10443 6.59309 2 6.85713 2H13.2116C13.7639 2 14.2116 2.44772 14.2116 3V5.49998H12.7116V3.5H8.49995V6.75C8.49995 7.7165 7.71645 8.5 6.74995 8.5H3.5V15.4286ZM3.53954 7L6.99995 3.56287V6.75C6.99995 6.88807 6.88803 7 6.74995 7H3.53954ZM16.5615 9.94841C16.562 9.94823 16.5595 9.9548 16.5527 9.96865C16.5577 9.95551 16.5611 9.94858 16.5615 9.94841ZM16.3251 10.3C16.1497 10.0819 15.8984 9.8201 15.584 9.56206C14.8342 8.94684 13.9111 8.5 13 8.5C12.0888 8.5 11.1657 8.94684 10.416 9.56206C10.1015 9.8201 9.85022 10.0819 9.67479 10.3C9.85022 10.5181 10.1015 10.7799 10.416 11.0379C11.1657 11.6532 12.0888 12.1 13 12.1C13.9111 12.1 14.8342 11.6532 15.584 11.0379C15.8984 10.7799 16.1497 10.5181 16.3251 10.3ZM9.43839 9.94841C9.43884 9.94859 9.44224 9.95551 9.44723 9.96864C9.44043 9.9548 9.43794 9.94823 9.43839 9.94841ZM9.43839 10.6516C9.43794 10.6518 9.44043 10.6452 9.44723 10.6314C9.44224 10.6445 9.43884 10.6514 9.43839 10.6516ZM16.5527 10.6314C16.5595 10.6452 16.562 10.6518 16.5615 10.6516C16.5611 10.6514 16.5577 10.6445 16.5527 10.6314ZM13 13.6C15.7614 13.6 18 10.96 18 10.3C18 9.64 15.7614 7 13 7C10.2385 7 7.99995 9.64 7.99995 10.3C7.99995 10.96 10.2385 13.6 13 13.6ZM13.7571 10.3008C13.7571 10.715 13.4213 11.0508 13.0071 11.0508C12.5929 11.0508 12.2571 10.715 12.2571 10.3008C12.2571 9.88662 12.5929 9.55084 13.0071 9.55084C13.4213 9.55084 13.7571 9.88662 13.7571 10.3008Z"/>
</mask>
<path class="Primary" fill-rule="evenodd" clip-rule="evenodd" d="M3.5 15.4286V16.5H12.7116V15H14.2116V17C14.2116 17.5523 13.7639 18 13.2116 18H3C2.44771 18 2 17.5523 2 17V15.4286V6.83118C2 6.56479 2.10629 6.30941 2.29528 6.12169L6.15242 2.29051C6.33976 2.10443 6.59309 2 6.85713 2H13.2116C13.7639 2 14.2116 2.44772 14.2116 3V5.49998H12.7116V3.5H8.49995V6.75C8.49995 7.7165 7.71645 8.5 6.74995 8.5H3.5V15.4286ZM3.53954 7L6.99995 3.56287V6.75C6.99995 6.88807 6.88803 7 6.74995 7H3.53954ZM16.5615 9.94841C16.562 9.94823 16.5595 9.9548 16.5527 9.96865C16.5577 9.95551 16.5611 9.94858 16.5615 9.94841ZM16.3251 10.3C16.1497 10.0819 15.8984 9.8201 15.584 9.56206C14.8342 8.94684 13.9111 8.5 13 8.5C12.0888 8.5 11.1657 8.94684 10.416 9.56206C10.1015 9.8201 9.85022 10.0819 9.67479 10.3C9.85022 10.5181 10.1015 10.7799 10.416 11.0379C11.1657 11.6532 12.0888 12.1 13 12.1C13.9111 12.1 14.8342 11.6532 15.584 11.0379C15.8984 10.7799 16.1497 10.5181 16.3251 10.3ZM9.43839 9.94841C9.43884 9.94859 9.44224 9.95551 9.44723 9.96864C9.44043 9.9548 9.43794 9.94823 9.43839 9.94841ZM9.43839 10.6516C9.43794 10.6518 9.44043 10.6452 9.44723 10.6314C9.44224 10.6445 9.43884 10.6514 9.43839 10.6516ZM16.5527 10.6314C16.5595 10.6452 16.562 10.6518 16.5615 10.6516C16.5611 10.6514 16.5577 10.6445 16.5527 10.6314ZM13 13.6C15.7614 13.6 18 10.96 18 10.3C18 9.64 15.7614 7 13 7C10.2385 7 7.99995 9.64 7.99995 10.3C7.99995 10.96 10.2385 13.6 13 13.6ZM13.7571 10.3008C13.7571 10.715 13.4213 11.0508 13.0071 11.0508C12.5929 11.0508 12.2571 10.715 12.2571 10.3008C12.2571 9.88662 12.5929 9.55084 13.0071 9.55084C13.4213 9.55084 13.7571 9.88662 13.7571 10.3008Z" fill="#698796"/>
<path class="Primary" d="M3.5 16.5H2V18H3.5V16.5ZM12.7116 16.5V18H14.2116V16.5H12.7116ZM12.7116 15V13.5H11.2116V15H12.7116ZM14.2116 15H15.7116V13.5H14.2116V15ZM2.29528 6.12169L3.35236 7.18592L3.35236 7.18592L2.29528 6.12169ZM6.15242 2.29051L7.20949 3.35475L7.20949 3.35474L6.15242 2.29051ZM14.2116 5.49998V6.99998H15.7116V5.49998H14.2116ZM12.7116 5.49998H11.2116V6.99998H12.7116V5.49998ZM12.7116 3.5H14.2116V2H12.7116V3.5ZM8.49995 3.5V2H6.99995V3.5H8.49995ZM3.5 8.5V7H2V8.5H3.5ZM6.99995 3.56287H8.49995V-0.04123L5.94288 2.49864L6.99995 3.56287ZM3.53954 7L2.48247 5.93577L-0.0991418 8.5H3.53954V7ZM16.5527 9.96865L15.1505 9.43591L17.899 10.6299L16.5527 9.96865ZM15.584 9.56206L16.5355 8.4025H16.5355L15.584 9.56206ZM16.3251 10.3L17.494 11.2401L18.2501 10.3L17.494 9.35988L16.3251 10.3ZM10.416 9.56206L11.3675 10.7216L11.3675 10.7216L10.416 9.56206ZM9.67479 10.3L8.50595 9.35988L7.7498 10.3L8.50595 11.2401L9.67479 10.3ZM10.416 11.0379L11.3675 9.87838L11.3675 9.87838L10.416 11.0379ZM15.584 11.0379L14.6324 9.87838L14.6324 9.87838L15.584 11.0379ZM9.43839 9.94841L8.88841 11.3439L8.89096 11.3449L9.43839 9.94841ZM9.44723 9.96864L8.10088 10.6299L10.8494 9.43587L9.44723 9.96864ZM9.44723 10.6314L10.8494 11.1641L8.10088 9.97005L9.44723 10.6314ZM16.5527 10.6314L17.8991 9.97012L15.1505 11.1641L16.5527 10.6314ZM5 16.5V15.4286H2V16.5H5ZM12.7116 15H3.5V18H12.7116V15ZM11.2116 15V16.5H14.2116V15H11.2116ZM14.2116 13.5H12.7116V16.5H14.2116V13.5ZM15.7116 17V15H12.7116V17H15.7116ZM13.2116 19.5C14.5924 19.5 15.7116 18.3807 15.7116 17H12.7116C12.7116 16.7239 12.9355 16.5 13.2116 16.5V19.5ZM3 19.5H13.2116V16.5H3V19.5ZM0.5 17C0.5 18.3807 1.61929 19.5 3 19.5V16.5C3.27614 16.5 3.5 16.7239 3.5 17H0.5ZM0.5 15.4286V17H3.5V15.4286H0.5ZM0.5 6.83118V15.4286H3.5V6.83118H0.5ZM1.23821 5.05745C0.765712 5.52677 0.5 6.16521 0.5 6.83118H3.5C3.5 6.96437 3.44686 7.09206 3.35236 7.18592L1.23821 5.05745ZM5.09534 1.22627L1.23821 5.05745L3.35236 7.18592L7.20949 3.35475L5.09534 1.22627ZM6.85713 0.5C6.19702 0.5 5.56369 0.76108 5.09534 1.22628L7.20949 3.35474C7.11582 3.44778 6.98916 3.5 6.85713 3.5V0.5ZM13.2116 0.5H6.85713V3.5H13.2116V0.5ZM15.7116 3C15.7116 1.61929 14.5924 0.5 13.2116 0.5V3.5C12.9355 3.5 12.7116 3.27614 12.7116 3H15.7116ZM15.7116 5.49998V3H12.7116V5.49998H15.7116ZM12.7116 6.99998H14.2116V3.99998H12.7116V6.99998ZM11.2116 3.5V5.49998H14.2116V3.5H11.2116ZM8.49995 5H12.7116V2H8.49995V5ZM9.99995 6.75V3.5H6.99995V6.75H9.99995ZM6.74995 10C8.54488 10 9.99995 8.54493 9.99995 6.75H6.99995C6.99995 6.88807 6.88803 7 6.74995 7V10ZM3.5 10H6.74995V7H3.5V10ZM5 15.4286V8.5H2V15.4286H5ZM5.94288 2.49864L2.48247 5.93577L4.59661 8.06423L8.05703 4.62711L5.94288 2.49864ZM8.49995 6.75V3.56287H5.49995V6.75H8.49995ZM6.74995 8.5C7.71645 8.5 8.49995 7.7165 8.49995 6.75H5.49995C5.49995 6.05964 6.0596 5.5 6.74995 5.5V8.5ZM3.53954 8.5H6.74995V5.5H3.53954V8.5ZM17.1056 11.3462C16.7838 11.4715 16.11 11.5733 15.5437 11.0503C15.1345 10.6723 15.0821 10.2116 15.0717 10.1227C15.0417 9.86625 15.0892 9.66178 15.0911 9.65226C15.1115 9.55102 15.1386 9.47412 15.1423 9.46334C15.1587 9.41539 15.1738 9.37952 15.1783 9.36889C15.1912 9.33855 15.2016 9.31688 15.2063 9.30736L17.899 10.6299C17.9105 10.6066 17.9256 10.5747 17.9413 10.5376C17.9472 10.5237 17.9633 10.4853 17.9803 10.4358C17.9843 10.4242 18.0115 10.3467 18.032 10.2451C18.0339 10.2353 18.0814 10.0307 18.0514 9.77425C18.041 9.68524 17.9886 9.22457 17.5794 8.84656C17.0131 8.32351 16.3392 8.42531 16.0174 8.55057L17.1056 11.3462ZM17.9549 10.5014C17.949 10.5168 17.9396 10.5405 17.9263 10.5701C17.9206 10.5826 17.9079 10.6105 17.8895 10.6456C17.8821 10.6598 17.8612 10.6994 17.8305 10.7481C17.8171 10.7694 17.7828 10.8231 17.7319 10.8865C17.7071 10.9176 17.6585 10.9759 17.5891 11.0411C17.5424 11.085 17.3746 11.2415 17.1056 11.3462L16.0174 8.55057C15.7484 8.65529 15.5805 8.81182 15.5338 8.85577C15.4644 8.92106 15.4158 8.9794 15.3909 9.01052C15.3399 9.07408 15.3055 9.12792 15.2919 9.14948C15.261 9.19862 15.2397 9.23894 15.2318 9.25398C15.2125 9.29083 15.1985 9.3213 15.1913 9.33722C15.1749 9.37364 15.1613 9.40733 15.1505 9.43591L17.9549 10.5014ZM14.6324 10.7216C14.869 10.9158 15.0471 11.1044 15.1563 11.2401L17.494 9.35988C17.2523 9.05939 16.9278 8.72442 16.5355 8.4025L14.6324 10.7216ZM13 10C13.4426 10 14.039 10.2347 14.6324 10.7216L16.5355 8.4025C15.6294 7.659 14.3796 7 13 7V10ZM11.3675 10.7216C11.9609 10.2347 12.5573 10 13 10V7C11.6203 7 10.3705 7.659 9.46442 8.4025L11.3675 10.7216ZM10.8436 11.2401C10.9528 11.1044 11.1309 10.9158 11.3675 10.7216L9.46442 8.4025C9.07213 8.72441 8.74764 9.05939 8.50595 9.35988L10.8436 11.2401ZM11.3675 9.87838C11.1309 9.6842 10.9528 9.49562 10.8436 9.35988L8.50595 11.2401C8.74765 11.5406 9.07213 11.8756 9.46442 12.1975L11.3675 9.87838ZM13 10.6C12.5573 10.6 11.9609 10.3653 11.3675 9.87838L9.46442 12.1975C10.3705 12.941 11.6203 13.6 13 13.6V10.6ZM14.6324 9.87838C14.039 10.3653 13.4426 10.6 13 10.6V13.6C14.3796 13.6 15.6294 12.941 16.5355 12.1975L14.6324 9.87838ZM15.1563 9.35989C15.0471 9.49562 14.869 9.68421 14.6324 9.87838L16.5355 12.1975C16.9278 11.8756 17.2523 11.5406 17.494 11.2401L15.1563 9.35989ZM8.89096 11.3449C8.62349 11.2401 8.45663 11.0843 8.41004 11.0404C8.34093 10.9753 8.29254 10.9172 8.26772 10.8862C8.21701 10.8229 8.18277 10.7693 8.16935 10.748C8.13873 10.6994 8.11784 10.6598 8.11042 10.6456C8.09205 10.6106 8.0793 10.5827 8.07365 10.5702C8.0603 10.5405 8.05091 10.5169 8.04504 10.5014L10.8494 9.43587C10.8386 9.40728 10.825 9.37359 10.8086 9.33718C10.8014 9.32126 10.7874 9.2908 10.7681 9.25396C10.7602 9.23893 10.7389 9.19865 10.708 9.14956C10.6945 9.12802 10.6601 9.07428 10.6093 9.01084C10.5844 8.97978 10.536 8.92161 10.4668 8.85648C10.4202 8.81256 10.2533 8.65673 9.98582 8.55187L8.89096 11.3449ZM10.7936 9.30734C10.7983 9.31686 10.8087 9.33853 10.8216 9.36886C10.8261 9.37947 10.8412 9.41534 10.8576 9.46327C10.8613 9.474 10.8884 9.55098 10.9088 9.65231C10.9106 9.6615 10.9584 9.86689 10.928 10.1243C10.9175 10.2135 10.8641 10.6777 10.4499 11.056C9.87893 11.5775 9.20477 11.4686 8.88841 11.3439L9.98837 8.55287C9.67198 8.42818 8.9978 8.3193 8.42677 8.84085C8.01255 9.21918 7.95921 9.6834 7.94868 9.7726C7.91829 10.0301 7.96604 10.2356 7.96793 10.245C7.98843 10.3467 8.01568 10.4243 8.01964 10.4358C8.03661 10.4854 8.05271 10.5237 8.05862 10.5377C8.07429 10.5747 8.0894 10.6066 8.10088 10.6299L10.7936 9.30734ZM8.89046 9.25525C9.20908 9.13022 9.88357 9.02401 10.4528 9.54667C10.8649 9.925 10.9177 10.3878 10.9281 10.4767C10.9583 10.7336 10.9107 10.9385 10.9088 10.9478C10.8884 11.049 10.8613 11.1259 10.8576 11.1367C10.8412 11.1846 10.8261 11.2205 10.8216 11.2311C10.8087 11.2614 10.7983 11.2831 10.7936 11.2927L8.10088 9.97005C8.08939 9.99343 8.07427 10.0253 8.05861 10.0624C8.05269 10.0763 8.0366 10.1147 8.01962 10.1642C8.01566 10.1758 7.98844 10.2533 7.96795 10.3549C7.96603 10.3644 7.91841 10.5694 7.94857 10.8264C7.959 10.9153 8.01181 11.3782 8.42388 11.7565C8.99316 12.2792 9.66767 12.173 9.98632 12.0479L8.89046 9.25525ZM8.04502 10.0986C8.0509 10.0831 8.0603 10.0595 8.07366 10.0298C8.07931 10.0173 8.09206 9.98944 8.11042 9.95438C8.11783 9.94023 8.1387 9.90067 8.16929 9.85208C8.18269 9.83079 8.21689 9.77729 8.26753 9.71403C8.29233 9.68306 8.34066 9.62497 8.4097 9.55991C8.45619 9.5161 8.623 9.3602 8.89046 9.25525L9.98632 12.0479C10.2538 11.943 10.4207 11.787 10.4672 11.7432C10.5363 11.6781 10.5846 11.62 10.6095 11.5889C10.6602 11.5255 10.6946 11.4719 10.7081 11.4503C10.739 11.4013 10.7602 11.3611 10.7681 11.346C10.7874 11.3092 10.8014 11.2788 10.8086 11.2628C10.825 11.2264 10.8386 11.1927 10.8494 11.1641L8.04502 10.0986ZM15.2063 11.2926C15.2016 11.2831 15.1912 11.2615 15.1783 11.2311C15.1739 11.2205 15.1587 11.1846 15.1423 11.1366C15.1386 11.1259 15.1114 11.0487 15.091 10.947C15.0892 10.9381 15.0412 10.7314 15.0723 10.4726C15.0831 10.3825 15.138 9.91571 15.5567 9.53788C16.1309 9.01986 16.8033 9.13369 17.1151 9.25747L16.008 12.0457C16.3197 12.1695 16.9922 12.2833 17.5664 11.7653C17.9852 11.3875 18.04 10.9206 18.0509 10.8305C18.082 10.5716 18.034 10.3648 18.0321 10.3556C18.0116 10.2536 17.9842 10.1758 17.9803 10.1643C17.9633 10.1147 17.9472 10.0763 17.9413 10.0623C17.9256 10.0253 17.9105 9.99346 17.8991 9.97012L15.2063 11.2926ZM17.1151 9.25747C17.3796 9.3625 17.5447 9.51696 17.5912 9.56083C17.6598 9.62562 17.7079 9.68344 17.7326 9.71436C17.7831 9.77747 17.8173 9.83085 17.8307 9.85216C17.8612 9.90071 17.8821 9.94025 17.8895 9.95442C17.9079 9.98949 17.9206 10.0173 17.9263 10.0299C17.9396 10.0595 17.949 10.0832 17.9549 10.0986L15.1505 11.1641C15.1613 11.1927 15.1749 11.2264 15.1913 11.2628C15.1985 11.2787 15.2125 11.3092 15.2318 11.346C15.2397 11.361 15.2609 11.4012 15.2918 11.4503C15.3053 11.4718 15.3396 11.5254 15.3902 11.5886C15.4149 11.6196 15.4631 11.6774 15.5317 11.7423C15.5783 11.7862 15.7434 11.9407 16.008 12.0457L17.1151 9.25747ZM16.5 10.3C16.5 10.0319 16.5898 9.89318 16.5525 9.969C16.5366 10.0014 16.4917 10.0802 16.4033 10.1991C16.2283 10.4345 15.9486 10.7387 15.584 11.0379C14.8342 11.6532 13.9111 12.1 13 12.1V15.1C14.8502 15.1 16.4271 14.2268 17.487 13.3571C18.0272 12.9138 18.4797 12.4343 18.8108 11.989C18.9754 11.7676 19.127 11.5319 19.2442 11.2936C19.3401 11.0987 19.5 10.7331 19.5 10.3H16.5ZM13 8.5C13.9111 8.5 14.8342 8.94684 15.584 9.56206C15.9486 9.86129 16.2283 10.1655 16.4033 10.4009C16.4917 10.5198 16.5366 10.5986 16.5525 10.631C16.5898 10.7068 16.5 10.5681 16.5 10.3H19.5C19.5 9.86687 19.3401 9.5013 19.2442 9.30643C19.127 9.06812 18.9754 8.83238 18.8108 8.61097C18.4797 8.16571 18.0272 7.68621 17.487 7.24294C16.4271 6.37316 14.8502 5.5 13 5.5V8.5ZM9.49995 10.3C9.49995 10.5681 9.4101 10.7068 9.44741 10.631C9.46335 10.5986 9.50824 10.5198 9.59664 10.4009C9.77163 10.1655 10.0513 9.86129 10.416 9.56206C11.1657 8.94684 12.0888 8.5 13 8.5V5.5C11.1497 5.5 9.57281 6.37316 8.51288 7.24294C7.97271 7.68621 7.52016 8.16571 7.18912 8.61097C7.02451 8.83238 6.87293 9.06812 6.75566 9.30643C6.65977 9.5013 6.49995 9.86687 6.49995 10.3H9.49995ZM13 12.1C12.0888 12.1 11.1657 11.6532 10.416 11.0379C10.0513 10.7387 9.77163 10.4345 9.59664 10.1991C9.50824 10.0802 9.46335 10.0014 9.44741 9.969C9.4101 9.89318 9.49995 10.0319 9.49995 10.3H6.49995C6.49995 10.7331 6.65977 11.0987 6.75566 11.2936C6.87293 11.5319 7.02451 11.7676 7.18912 11.989C7.52016 12.4343 7.97271 12.9138 8.51288 13.3571C9.57281 14.2268 11.1497 15.1 13 15.1V12.1ZM13.0071 12.5508C14.2497 12.5508 15.2571 11.5435 15.2571 10.3008H12.2571C12.2571 9.88662 12.5929 9.55084 13.0071 9.55084V12.5508ZM10.7571 10.3008C10.7571 11.5435 11.7645 12.5508 13.0071 12.5508V9.55084C13.4213 9.55084 13.7571 9.88662 13.7571 10.3008H10.7571ZM13.0071 8.05084C11.7645 8.05084 10.7571 9.0582 10.7571 10.3008H13.7571C13.7571 10.715 13.4213 11.0508 13.0071 11.0508V8.05084ZM15.2571 10.3008C15.2571 9.0582 14.2497 8.05084 13.0071 8.05084V11.0508C12.5929 11.0508 12.2571 10.715 12.2571 10.3008H15.2571Z" fill="#698796" mask="url(#path-1-inside-1_7693_8)"/>
</svg>

<svg xmlns="http://www.w3.org/2000/svg" width="20" height="20" fill="none" viewBox="0 0 20 20">
  <g class="20x20/Outline/audit_trail">
    <mask id="a" class="a">
      <path fill-rule="evenodd" d="M3.5 15.429V16.5h9.212V15h1.5v2a1 1 0 0 1-1 1H3a1 1 0 0 1-1-1V6.831a1 1 0 0 1 .295-.71l3.857-3.83A1 1 0 0 1 6.857 2h6.355a1 1 0 0 1 1 1v2.5h-1.5v-2H8.5v3.25A1.75 1.75 0 0 1 6.75 8.5H3.5v6.929ZM3.54 7 7 3.563V6.75a.25.25 0 0 1-.25.25H3.54Zm13.02 2.948-.008.02a.134.134 0 0 1 .008-.02Zm-.236.352a5.195 5.195 0 0 0-.741-.738C14.834 8.947 13.911 8.5 13 8.5s-1.834.447-2.584 1.062c-.315.258-.566.52-.741.738.175.218.426.48.741.738.75.615 1.673 1.062 2.584 1.062s1.834-.447 2.584-1.062c.314-.258.566-.52.741-.738Zm-6.887-.352.01.02a.113.113 0 0 1-.01-.02Zm0 .704s.002-.007.01-.02a.126.126 0 0 1-.01.02Zm7.115-.02.008.02-.008-.02ZM13 13.6c2.761 0 5-2.64 5-3.3 0-.66-2.239-3.3-5-3.3s-5 2.64-5 3.3c0 .66 2.239 3.3 5 3.3Zm.757-3.3a.75.75 0 1 1-1.5 0 .75.75 0 0 1 1.5 0Z" clip-rule="evenodd"/>
    </mask>
    <path class="Primary" fill="#698796" fill-rule="evenodd" d="M3.5 15.429V16.5h9.212V15h1.5v2a1 1 0 0 1-1 1H3a1 1 0 0 1-1-1V6.831a1 1 0 0 1 .295-.71l3.857-3.83A1 1 0 0 1 6.857 2h6.355a1 1 0 0 1 1 1v2.5h-1.5v-2H8.5v3.25A1.75 1.75 0 0 1 6.75 8.5H3.5v6.929ZM3.54 7 7 3.563V6.75a.25.25 0 0 1-.25.25H3.54Zm13.02 2.948-.008.02a.134.134 0 0 1 .008-.02Zm-.236.352a5.195 5.195 0 0 0-.741-.738C14.834 8.947 13.911 8.5 13 8.5s-1.834.447-2.584 1.062c-.315.258-.566.52-.741.738.175.218.426.48.741.738.75.615 1.673 1.062 2.584 1.062s1.834-.447 2.584-1.062c.314-.258.566-.52.741-.738Zm-6.887-.352.01.02a.113.113 0 0 1-.01-.02Zm0 .704s.002-.007.01-.02a.126.126 0 0 1-.01.02Zm7.115-.02.008.02-.008-.02ZM13 13.6c2.761 0 5-2.64 5-3.3 0-.66-2.239-3.3-5-3.3s-5 2.64-5 3.3c0 .66 2.239 3.3 5 3.3Zm.757-3.3a.75.75 0 1 1-1.5 0 .75.75 0 0 1 1.5 0Z" clip-rule="evenodd"/>
    <path class="Primary" fill="#698796" d="M3.5 16.5H2V18h1.5v-1.5Zm9.212 0V18h1.5v-1.5h-1.5Zm0-1.5v-1.5h-1.5V15h1.5Zm1.5 0h1.5v-1.5h-1.5V15ZM2.295 6.122l1.057 1.064-1.057-1.064ZM6.152 2.29 7.21 3.355 6.152 2.29Zm8.06 3.209V7h1.5V5.5h-1.5Zm-1.5 0h-1.5V7h1.5V5.5Zm0-2h1.5V2h-1.5v1.5ZM8.5 3.5V2H7v1.5h1.5Zm-5 5V7H2v1.5h1.5ZM7 3.563h1.5V-.041l-2.557 2.54L7 3.563ZM3.54 7 2.482 5.936-.099 8.5H3.54V7Zm13.013 2.969-1.403-.533 2.75 1.194-1.346-.661Zm-.969-.407.951-1.16-.951 1.16Zm.741.738 1.169.94.756-.94-.756-.94-1.169.94Zm-5.909-.738.951 1.16-.951-1.16Zm-.741.738-1.17-.94-.755.94.756.94 1.169-.94Zm.741.738.951-1.16-.951 1.16Zm5.168 0-.952-1.16.952 1.16Zm-6.146-1.09-.55 1.396h.003l.547-1.396Zm.01.02L8.1 10.63l2.748-1.194-1.402.533Zm0 .663 1.401.533L8.101 9.97l1.346.661Zm7.105 0 1.346-.66-2.749 1.193 1.403-.533ZM5 16.5v-1.071H2V16.5h3Zm7.712-1.5H3.5v3h9.212v-3Zm-1.5 0v1.5h3V15h-3Zm3-1.5h-1.5v3h1.5v-3Zm1.5 3.5v-2h-3v2h3Zm-2.5 2.5a2.5 2.5 0 0 0 2.5-2.5h-3a.5.5 0 0 1 .5-.5v3ZM3 19.5h10.212v-3H3v3ZM.5 17A2.5 2.5 0 0 0 3 19.5v-3a.5.5 0 0 1 .5.5h-3Zm0-1.571V17h3v-1.571h-3Zm0-8.598v8.598h3V6.83h-3Zm.738-1.774A2.5 2.5 0 0 0 .5 6.831h3a.5.5 0 0 1-.148.355L1.238 5.057Zm3.857-3.83-3.857 3.83 2.114 2.129L7.21 3.355 5.095 1.226ZM6.857.5a2.5 2.5 0 0 0-1.762.726L7.21 3.355a.5.5 0 0 1-.352.145v-3Zm6.355 0H6.857v3h6.355v-3Zm2.5 2.5a2.5 2.5 0 0 0-2.5-2.5v3a.5.5 0 0 1-.5-.5h3Zm0 2.5V3h-3v2.5h3Zm-3 1.5h1.5V4h-1.5v3Zm-1.5-3.5v2h3v-2h-3ZM8.5 5h4.212V2H8.5v3ZM10 6.75V3.5H7v3.25h3ZM6.75 10A3.25 3.25 0 0 0 10 6.75H7a.25.25 0 0 1-.25.25v3ZM3.5 10h3.25V7H3.5v3ZM5 15.429V8.5H2v6.929h3Zm.943-12.93-3.46 3.437 2.114 2.128 3.46-3.437L5.943 2.5ZM8.5 6.75V3.563h-3V6.75h3ZM6.75 8.5A1.75 1.75 0 0 0 8.5 6.75h-3c0-.69.56-1.25 1.25-1.25v3Zm-3.21 0h3.21v-3H3.54v3Zm13.566 2.846c-.322.126-.996.227-1.562-.296a1.492 1.492 0 0 1-.452-1.397c.02-.102.047-.179.05-.19a1.436 1.436 0 0 1 .064-.156L17.9 10.63a1.76 1.76 0 0 0 .081-.194c.004-.012.032-.09.052-.19.002-.01.05-.215.02-.472-.011-.089-.063-.55-.473-.927-.566-.523-1.24-.422-1.562-.296l1.089 2.795Zm.849-.845c-.006.016-.015.04-.029.07a1.455 1.455 0 0 1-.337.471 1.5 1.5 0 0 1-.483.304l-1.089-2.795a1.5 1.5 0 0 0-.867.885l2.805 1.065Zm-3.323.22c.237.195.415.383.524.52l2.338-1.881a6.69 6.69 0 0 0-.959-.957l-1.903 2.319ZM13 10c.443 0 1.039.235 1.632.722l1.903-2.32C15.63 7.66 14.38 7 13 7v3Zm-1.633.722C11.961 10.235 12.557 10 13 10V7c-1.38 0-2.63.659-3.536 1.402l1.903 2.32Zm-.523.518c.109-.136.287-.324.524-.518l-1.904-2.32a6.69 6.69 0 0 0-.958.958l2.338 1.88Zm.524-1.362a3.708 3.708 0 0 1-.524-.518l-2.338 1.88c.242.3.566.636.958.957l1.903-2.319ZM13 10.6c-.443 0-1.04-.235-1.633-.722l-1.903 2.32C10.37 12.94 11.62 13.6 13 13.6v-3Zm1.632-.722c-.593.487-1.19.722-1.632.722v3c1.38 0 2.63-.659 3.535-1.402l-1.903-2.32Zm.524-.518a3.656 3.656 0 0 1-.524.518l1.903 2.32c.393-.322.717-.657.959-.958l-2.338-1.88Zm-6.265 1.985a1.499 1.499 0 0 1-.846-.844l2.804-1.065a1.73 1.73 0 0 0-.141-.286 1.49 1.49 0 0 0-.722-.598L8.89 11.345Zm1.903-2.038a1.235 1.235 0 0 1 .064.156c.003.011.03.088.05.19a1.496 1.496 0 0 1-.458 1.403c-.571.522-1.245.413-1.562.288l1.1-2.791c-.316-.125-.99-.234-1.561.288a1.496 1.496 0 0 0-.478.932c-.03.257.017.463.019.472a1.553 1.553 0 0 0 .133.385l2.693-1.323ZM8.89 9.255c.32-.125.994-.231 1.563.292a1.494 1.494 0 0 1 .455 1.4c-.02.102-.047.179-.05.19a1.435 1.435 0 0 1-.064.156L8.1 9.97a1.773 1.773 0 0 0-.081.194c-.004.012-.032.09-.052.19-.002.01-.05.215-.02.472.011.09.064.552.476.93.57.523 1.244.417 1.562.292L8.89 9.255Zm-.845.844a1.245 1.245 0 0 1 .124-.247 1.497 1.497 0 0 1 .721-.597l1.096 2.793a1.5 1.5 0 0 0 .863-.884L8.045 10.1Zm7.161 1.194a1.193 1.193 0 0 1-.028-.062c-.004-.01-.02-.046-.036-.094-.003-.011-.03-.088-.051-.19-.002-.009-.05-.216-.019-.474.011-.09.066-.557.485-.935.574-.518 1.246-.404 1.558-.28l-1.107 2.788c.312.123.984.237 1.558-.28.42-.379.474-.845.485-.935.031-.26-.017-.466-.019-.475-.02-.102-.048-.18-.052-.192a1.584 1.584 0 0 0-.08-.194l-2.694 1.323Zm1.91-2.036a1.5 1.5 0 0 1 .839.842l-2.804 1.065a1.725 1.725 0 0 0 .14.286 1.492 1.492 0 0 0 .717.596l1.107-2.789ZM16.5 10.3c0-.268.09-.407.052-.331-.015.032-.06.111-.149.23-.175.236-.454.54-.819.839-.75.615-1.673 1.062-2.584 1.062v3c1.85 0 3.427-.873 4.487-1.743.54-.443.993-.923 1.324-1.368a4.56 4.56 0 0 0 .433-.695c.096-.195.256-.56.256-.994h-3ZM13 8.5c.911 0 1.834.447 2.584 1.062.365.3.644.604.82.839.088.119.133.198.148.23.038.076-.052-.063-.052-.331h3c0-.433-.16-.799-.256-.994a4.561 4.561 0 0 0-.433-.695 7.969 7.969 0 0 0-1.324-1.368C16.427 6.373 14.85 5.5 13 5.5v3Zm-3.5 1.8c0 .268-.09.407-.053.331.016-.032.061-.111.15-.23.175-.236.454-.54.819-.839C11.166 8.947 12.089 8.5 13 8.5v-3c-1.85 0-3.427.873-4.487 1.743-.54.443-.993.923-1.324 1.368a4.566 4.566 0 0 0-.433.695c-.096.195-.256.56-.256.994h3Zm3.5 1.8c-.911 0-1.834-.447-2.584-1.062a4.982 4.982 0 0 1-.82-.839 1.658 1.658 0 0 1-.149-.23c-.037-.076.053.063.053.331h-3c0 .433.16.799.256.994.117.238.269.474.433.695.331.445.784.925 1.324 1.368 1.06.87 2.637 1.743 4.487 1.743v-3Zm.007.45a2.25 2.25 0 0 0 2.25-2.25h-3a.75.75 0 0 1 .75-.75v3Zm-2.25-2.25a2.25 2.25 0 0 0 2.25 2.25v-3a.75.75 0 0 1 .75.75h-3Zm2.25-2.25a2.25 2.25 0 0 0-2.25 2.25h3a.75.75 0 0 1-.75.75v-3Zm2.25 2.25a2.25 2.25 0 0 0-2.25-2.25v3a.75.75 0 0 1-.75-.75h3Z" mask="url(#a)"/>
  </g>
</svg>
